X: 25634
T: Martin House, The
R: jig
M: 6/8
K: Gmajor
|:d2 c|B2 d gdB|c2 e A2 G|FA/B/c edc|BB/c/d G2 d|
B2 d gdB|c2 e A2 g|1 ff/e/d cc/B/A|G3:|2 f2 d cAf|g3||
dfa|bgd c’af|bgd B2 G|FAc df/g/a|bgd cAd|
bgd c’af|bgd B2 g|fed cAf|g3 df/g/a/|
b2 d c’2 a|bgd B2 G|FAc DF/G/A|BGD cAD|
BGd cAf|B/c/dg b2 a/g/|fed cAd|G3||

